!!!OTL: Uralter Pfingstreigen
!!!ARE: Europa, Mitteleuropa, Deutschland
!!!SCT: A0498
!!!YEM: Copyright 1995, estate of Helmut Schaffrath.
**kern
*ICvox
*Ivox
*M2/4
*k[f#c#]
*D:
{8e
=1
8a
8g#
8a
8b
=2
4ccn
4g}
=3
{4ccn
8b
8a
=4
8b
8g#
8a}
{16a
16b
=5
8ccn
8b
8a
8g
=6
8a
8g
8fn
8r}
=7
{4g
8g
8e
=8
8fn
8g
4a}
=9
{8b-
8a
8g
8e
=10
8fn
8e
8d}
==
!!!AGN: Romanze, Ballade, Lied
!! Erk II 4/5 No. 31. Die Melodie ist uralt, ebenso der Kehrreim, der
!!    in alten rheinischen Tanzliedern vorkommt.
!!!ONB: ESAC (Essen Associative Code) Database: ALTDEU
!!!AMT: simple duple
!!!AIN: vox
!!!EED: Helmut Schaffrath
!!!EEV: 1.0
*-
